src/assets/icons/reddit.svg

<svg width="14" height="14" viewBox="0 0 14 14" fill="none" xmlns="http://www.w3.org/2000/svg">
<g id="reddit">
<g clip-path="url(#clip0_156_4470)">
<path id="Vector" d="M5.46175 8.39739C5.07238 8.39739 4.75912 8.08413 4.75912 7.70263C4.75912 7.31326 5.07238 7 5.46175 7C5.84588 7 6.1565 7.31326 6.1565 7.70263C6.1565 8.08676 5.84325 8.39739 5.46175 8.39739ZM14 7C14 10.8666 10.8666 14 7 14C3.13337 14 0 10.8666 0 7C0 3.13337 3.13337 0 7 0C10.8666 0 14 3.13337 14 7ZM10.2664 5.83712C10.0013 5.83712 9.76675 5.94739 9.59438 6.11977C8.96175 5.68227 8.1095 5.39964 7.1645 5.36901L7.65538 3.15876L9.219 3.51138C9.219 3.8955 9.53225 4.20613 9.91375 4.20613C10.3031 4.20613 10.6164 3.88675 10.6164 3.5035C10.6164 3.11937 10.3031 2.80089 9.91375 2.80089C9.63988 2.80089 9.40538 2.9645 9.28988 3.19025L7.56263 2.80613C7.47775 2.78338 7.39025 2.8455 7.3675 2.93037L6.8285 5.36901C5.89138 5.40839 5.04788 5.68838 4.41525 6.12588C4.24288 5.94563 4.0005 5.838 3.73538 5.838C2.75013 5.838 2.42813 7.16187 3.3285 7.61075C3.29788 7.75162 3.28038 7.89862 3.28038 8.04825C3.28038 9.53312 4.95162 10.7354 7.00612 10.7354C9.06938 10.7354 10.7406 9.53312 10.7406 8.04825C10.7406 7.89862 10.724 7.74377 10.6873 7.60202C11.5701 7.14964 11.2455 5.83712 10.2664 5.83712ZM8.32125 9.11751C7.80763 9.63114 6.17313 9.62239 5.67963 9.11751C5.6175 9.05539 5.50725 9.05539 5.44512 9.11751C5.37425 9.18839 5.37425 9.29774 5.44512 9.35987C6.08825 10.003 7.90912 10.003 8.55575 9.35987C8.62663 9.29774 8.62663 9.18751 8.55575 9.11751C8.49362 9.05539 8.38338 9.05539 8.32125 9.11751ZM8.53825 7C8.15412 7 7.8435 7.31326 7.8435 7.70263C7.8435 8.08676 8.15675 8.39739 8.53825 8.39739C8.92762 8.39739 9.24088 8.08413 9.24088 7.70263C9.24175 7.31326 8.93112 7 8.53825 7Z" fill="black"/>
</g>
</g>
<defs>
<clipPath id="clip0_156_4470">
<rect width="14" height="14" fill="white"/>
</clipPath>
</defs>
</svg>

<svg xmlns="http://www.w3.org/2000/svg" fill="none" viewBox="0 0 14 14"><g clip-path="url(#a)"><path fill="#000" d="M5.462 8.397A.7.7 0 1 1 5.455 7a.7.7 0 0 1 .007 1.398M14 7a7 7 0 0 1-7 7 7 7 0 0 1-7-7 7 7 0 0 1 7-7 7 7 0 0 1 7 7m-3.734-1.163c-.265 0-.5.11-.672.283-.632-.438-1.484-.72-2.43-.751l.491-2.21 1.564.352c0 .385.313.695.695.695.39 0 .702-.32.702-.703a.704.704 0 0 0-.702-.702.71.71 0 0 0-.624.39l-1.727-.385c-.085-.023-.173.04-.195.124l-.54 2.439c-.937.04-1.78.32-2.413.757a.94.94 0 0 0-.68-.288c-.985 0-1.307 1.324-.406 1.773q-.048.212-.049.437c0 1.485 1.672 2.687 3.726 2.687 2.063 0 3.735-1.202 3.735-2.687 0-.15-.017-.304-.054-.446.883-.452.559-1.765-.42-1.765m-1.945 3.28c-.513.514-2.148.505-2.641 0a.17.17 0 0 0-.235 0c-.07.071-.07.18 0 .243.643.643 2.464.643 3.11 0 .072-.062.072-.172 0-.242a.17.17 0 0 0-.234 0M8.538 7a.7.7 0 0 0-.695.703A.7.7 0 1 0 8.539 7"/></g><defs><clipPath id="a"><path fill="#fff" d="M0 0h14v14H0z"/></clipPath></defs></svg>
